svgs/sharp-light/square-check.svg

<svg xmlns="http://www.w3.org/2000/svg" viewBox="0 0 448 512"><!--! Font Awesome Pro 6.6.0 by @fontawesome - https://fontawesome.com License - https://fontawesome.com/license (Commercial License) Copyright 2024 Fonticons, Inc. --><path d="M32 64l0 384 384 0 0-384L32 64zM0 32l32 0 384 0 32 0 0 32 0 384 0 32-32 0L32 480 0 480l0-32L0 64 0 32zM331.3 203.3l-128 128L192 342.6l-11.3-11.3-64-64L105.4 256 128 233.4l11.3 11.3L192 297.4 308.7 180.7 320 169.4 342.6 192l-11.3 11.3z"/></svg>

<svg xmlns="http://www.w3.org/2000/svg" viewBox="0 0 448 512"><!--! Font Awesome Pro 6.4.0 by @fontawesome - https://fontawesome.com License - https://fontawesome.com/license (Commercial License) Copyright 2023 Fonticons, Inc. --><path d="M32 64V448H416V64H32zM0 32H32 416h32V64 448v32H416 32 0V448 64 32zM331.3 203.3l-128 128L192 342.6l-11.3-11.3-64-64L105.4 256 128 233.4l11.3 11.3L192 297.4 308.7 180.7 320 169.4 342.6 192l-11.3 11.3z"/></svg>
